resources/svg/translations.svg

<svg width="24" height="24" viewBox="0 0 24 24" fill="none" xmlns="http://www.w3.org/2000/svg">
<path d="M6.62921 10.3435C6.62921 10.3435 6.76734 11.0026 6.87933 11.3817V11.3808L7.22932 12.5535H6.0067L6.36322 11.3808C6.47521 11.0026 6.61334 10.3435 6.61334 10.3435H6.62921Z" fill="#272C37"/>
<path fill-rule="evenodd" clip-rule="evenodd" d="M2 7.75V16.25C2 16.6655 2.34346 17 2.76997 17H11.753V7H2.76997C2.56561 6.99952 2.36948 7.07838 2.22497 7.21914C2.08047 7.35989 1.99951 7.55094 2 7.75ZM3.88968 14.5027L5.73295 9.2191C5.78604 9.06659 5.93348 8.96437 6.0988 8.96546H7.14223C7.30649 8.96546 7.45395 9.0691 7.50808 9.2191L9.35415 14.5027C9.39416 14.6176 9.37486 14.7443 9.30231 14.8429C9.22976 14.9415 9.11285 15 8.9883 15H8.25286C8.08206 15 7.93165 14.8905 7.88327 14.7309L7.58181 13.7345H5.64988L5.35963 14.7273C5.31156 14.887 5.16189 14.9974 4.99097 14.9991H4.25647C4.13207 14.9987 4.01545 14.9401 3.94299 14.8416C3.87053 14.7431 3.85105 14.6167 3.89061 14.5018L3.88968 14.5027Z" fill="#272C37"/>
<path fill-rule="evenodd" clip-rule="evenodd" d="M21.2491 7.01903C21.4484 7.01845 21.6398 7.09532 21.7807 7.23261C21.9216 7.36988 22.0006 7.5562 22 7.75031C22 7.75048 22 7.75014 22 7.75031V16.2501C22 16.6549 21.6665 16.9811 21.2495 16.9811H12.2859V7.01903H21.2491ZM21.2491 7.01903C21.2493 7.01903 21.249 7.01903 21.2491 7.01903V7.01903ZM21.4782 7.52724C21.4178 7.46835 21.3357 7.4354 21.2502 7.43569L12.7137 7.43569V16.5645H21.2495C21.4298 16.5645 21.5722 16.4253 21.5722 16.2501V7.75009C21.5725 7.66681 21.5387 7.58613 21.4782 7.52724Z" fill="#272C37"/>
<path d="M20.4789 10.7499C20.4779 10.9567 20.3058 11.124 20.0935 11.1245H19.7286C19.5064 11.8627 19.0323 12.6063 18.3585 13.309C18.6282 13.509 18.9073 13.6999 19.1956 13.8727C19.373 13.9781 19.429 14.1999 19.3263 14.3781L19.0743 14.8127C19.0225 14.9009 18.9363 14.965 18.8352 14.9904C18.7341 15.0157 18.6268 15.0001 18.5377 14.9472C18.1428 14.711 17.7635 14.4511 17.4018 14.169C17.0528 14.4408 16.6739 14.7027 16.267 14.9472C16.1778 15.0001 16.0705 15.0157 15.9694 14.9904C15.8684 14.965 15.7821 14.9009 15.7303 14.8127L15.4774 14.3781C15.3737 14.2018 15.4334 13.9771 15.6118 13.8718C15.9104 13.6936 16.1904 13.5063 16.4489 13.309C16.2053 13.0574 15.9804 12.7892 15.776 12.5063C15.7152 12.4212 15.6934 12.3153 15.7159 12.2139C15.7384 12.1125 15.8031 12.0248 15.8946 11.9718L16.1027 11.8499L16.337 11.7154C16.5105 11.6158 16.7334 11.662 16.8503 11.8218C17.0108 12.0399 17.1965 12.259 17.4084 12.4745C17.8414 12.0308 18.1718 11.5718 18.3715 11.1245H14.7037C14.4917 11.1235 14.3202 10.9564 14.3192 10.7499V10.2499C14.3192 10.0436 14.4928 9.87448 14.7046 9.87448H16.7579V9.37448C16.7579 9.16903 16.9305 8.99993 17.1424 8.99993H17.6557C17.8676 8.99993 18.0412 9.16903 18.0412 9.37448V9.87448H20.0944C20.3053 9.87448 20.4789 10.0436 20.4789 10.2499V10.7499Z" fill="#272C37"/>
</svg>

<svg width="24" height="24" xmlns="http://www.w3.org/2000/svg"><path d="M6.63 10.344s.137.659.25 1.038v-.001l.35 1.172H6.006l.356-1.172c.112-.378.25-1.037.25-1.037h.016Z"/><path fill-rule="evenodd" clip-rule="evenodd" d="M2 7.75v8.5c0 .416.343.75.77.75h8.983V7H2.77c-.204 0-.4.078-.545.22A.738.738 0 0 0 2 7.75Zm1.89 6.753 1.843-5.284a.383.383 0 0 1 .366-.254h1.043a.39.39 0 0 1 .366.254l1.846 5.284c.04.115.02.241-.052.34a.39.39 0 0 1-.314.157h-.735a.384.384 0 0 1-.37-.27l-.301-.995H5.65l-.29.992A.387.387 0 0 1 4.99 15h-.735a.39.39 0 0 1-.313-.157.37.37 0 0 1-.052-.34H3.89ZM21.25 7.019c.198 0 .39.076.53.214a.72.72 0 0 1 .22.517v8.5a.739.739 0 0 1-.75.731h-8.964V7.02h8.963Zm0 0s-.001 0 0 0Zm.228.508a.325.325 0 0 0-.228-.091h-8.536v9.128h8.536c.18 0 .322-.139.322-.314v-8.5a.31.31 0 0 0-.094-.223Z"/><path d="M20.479 10.75a.381.381 0 0 1-.386.374h-.364c-.223.739-.697 1.482-1.37 2.185.27.2.548.39.837.564a.368.368 0 0 1 .13.505l-.252.435a.386.386 0 0 1-.239.177.396.396 0 0 1-.297-.043 11.17 11.17 0 0 1-1.136-.778c-.35.272-.728.534-1.135.778a.396.396 0 0 1-.298.043.386.386 0 0 1-.239-.177l-.253-.435a.369.369 0 0 1 .135-.506c.298-.178.578-.366.837-.563a7.302 7.302 0 0 1-.673-.803.366.366 0 0 1 .119-.534l.208-.122.234-.135a.395.395 0 0 1 .513.107c.16.218.346.437.558.653.433-.444.764-.903.963-1.35h-3.667a.381.381 0 0 1-.385-.375v-.5c0-.206.174-.376.386-.376h2.053v-.5A.38.38 0 0 1 17.142 9h.514c.212 0 .385.169.385.374v.5h2.053c.211 0 .385.17.385.376v.5Z"/></svg>
